X: 292
T: A Night At The Fair
R: jig
M: 6/8
K: Gmajor
B2A GED|EGG G2A|BGG dGG|B2A AGA|
B2A GED|EGG G2A|BeB dBA|1 AGF G2A:|2 AGF GBd||
efg eaa|efg ged|BGG dGG|B2A ABd|
efg eaa|efg ged|BeB dBA|1 AGF GBd:|2 AGF G2A||

